X:37
T:Leroy the Barbarian
R:reel
C: 1979, 2010 L.E. McCullough  
M:4/4
L:1/8
K:G
|:BAGB AGEG|DEGA Bded|B~A3 AGBd|edBA ~G3A|
B~G3 edeg|edBA AGEG|DEGA Bdeg|edBA ~G3A:|
|:Bdeg a~g3|agbg edBA|Bded eged|BAGE ~G3A|
Bdeg a~g3|~a3g bgeg|b~g3 edeg|edBA ~G3A:|


